svgs/sharp-regular/wind-turbine.svg

<svg xmlns="http://www.w3.org/2000/svg" viewBox="0 0 512 512"><!--! Font Awesome Pro 6.6.0 by @fontawesome - https://fontawesome.com License - https://fontawesome.com/license (Commercial License) Copyright 2024 Fonticons, Inc. --><path d="M340.8 425L317.1 202.8 415.4 2 234.8 133.7l-223 15.2 204.4 90.6L340.8 425zM232 192a24 24 0 1 1 48 0 24 24 0 1 1 -48 0zm48 199.9l-48-71.4L232 464l-80 0-24 0 0 48 24 0 104 0 104 0 24 0 0-48-24 0-80 0 0-72.1z"/></svg>

<svg xmlns="http://www.w3.org/2000/svg" viewBox="0 0 512 512"><!--! Font Awesome Pro 6.4.2 by @fontawesome - https://fontawesome.com License - https://fontawesome.com/license (Commercial License) Copyright 2023 Fonticons, Inc. --><path d="M340.8 425L317.1 202.8 415.4 2 234.8 133.7l-223 15.2 204.4 90.6L340.8 425zM232 192a24 24 0 1 1 48 0 24 24 0 1 1 -48 0zm48 199.9l-48-71.4V464H152 128v48h24H256 360h24V464H360 280V391.9z"/></svg>
